usr/share/icons/biglinux-icons-material/scalable/mimetypes/text-x-patch.svg

<svg width="24" height="24" viewBox="0 0 24 24" fill="none" xmlns="http://www.w3.org/2000/svg">
<rect x="1" y="1" width="22" height="22" rx="6.6" fill="url(#paint0_radial_21_1795)"/>
<path d="M4.32 6C4.14272 6 4 6.1338 4 6.3V6.9C4 7.0662 4.14272 7.2 4.32 7.2H4.96C5.13728 7.2 5.28 7.0662 5.28 6.9V6.3C5.28 6.1338 5.13728 6 4.96 6H4.32ZM7.52 6C7.34272 6 7.2 6.1338 7.2 6.3V6.9C7.2 7.0662 7.34272 7.2 7.52 7.2H18.4C18.5773 7.2 18.72 7.0662 18.72 6.9V6.3C18.72 6.1338 18.5773 6 18.4 6H7.52ZM4.32 16.8C4.14272 16.8 4 16.9338 4 17.1V17.7C4 17.8662 4.14272 18 4.32 18H4.96C5.13728 18 5.28 17.8662 5.28 17.7V17.1C5.28 16.9338 5.13728 16.8 4.96 16.8H4.32ZM7.52 16.8C7.34272 16.8 7.2 16.9338 7.2 17.1V17.7C7.2 17.8662 7.34272 18 7.52 18H18.4C18.5773 18 18.72 17.8662 18.72 17.7V17.1C18.72 16.9338 18.5773 16.8 18.4 16.8H7.52Z" fill="#ABACAE"/>
<path d="M5.6 9.6C5.42272 9.6 5.28 9.7338 5.28 9.9V10.5C5.28 10.6662 5.42272 10.8 5.6 10.8H6.24C6.41728 10.8 6.56 10.6662 6.56 10.5V9.9C6.56 9.7338 6.41728 9.6 6.24 9.6H5.6ZM8.8 9.6C8.62272 9.6 8.48 9.7338 8.48 9.9V10.5C8.48 10.6662 8.62272 10.8 8.8 10.8H19.68C19.8573 10.8 20 10.6662 20 10.5V9.9C20 9.7338 19.8573 9.6 19.68 9.6H8.8Z" fill="#ED5353"/>
<path d="M5.6 13.2C5.42272 13.2 5.28 13.3338 5.28 13.5V14.1C5.28 14.2662 5.42272 14.4 5.6 14.4H6.24C6.41728 14.4 6.56 14.2662 6.56 14.1V13.5C6.56 13.3338 6.41728 13.2 6.24 13.2H5.6ZM8.8 13.2C8.62272 13.2 8.48 13.3338 8.48 13.5V14.1C8.48 14.2662 8.62272 14.4 8.8 14.4H19.68C19.8573 14.4 20 14.2662 20 14.1V13.5C20 13.3338 19.8573 13.2 19.68 13.2H8.8Z" fill="#68B723"/>
<defs>
<radialGradient id="paint0_radial_21_1795" cx="0" cy="0" r="1" gradientUnits="userSpaceOnUse" gradientTransform="translate(17.5 1) rotate(116.565) scale(24.5967)">
<stop stop-color="#F4F4F4"/>
<stop offset="1" stop-color="#BBBBBB"/>
</radialGradient>
</defs>
</svg>

<svg xmlns="http://www.w3.org/2000/svg" width="24" height="24" fill="none"><rect width="22" height="22" x="1" y="1" fill="url(#a)" rx="6.6"/><path fill="#ABACAE" d="M4.32 6c-.177 0-.32.134-.32.3v.6c0 .166.143.3.32.3h.64c.177 0 .32-.134.32-.3v-.6c0-.166-.143-.3-.32-.3h-.64Zm3.2 0c-.177 0-.32.134-.32.3v.6c0 .166.143.3.32.3H18.4c.177 0 .32-.134.32-.3v-.6c0-.166-.143-.3-.32-.3H7.52Zm-3.2 10.8c-.177 0-.32.134-.32.3v.6c0 .166.143.3.32.3h.64c.177 0 .32-.134.32-.3v-.6c0-.166-.143-.3-.32-.3h-.64Zm3.2 0c-.177 0-.32.134-.32.3v.6c0 .166.143.3.32.3H18.4c.177 0 .32-.134.32-.3v-.6c0-.166-.143-.3-.32-.3H7.52Z"/><path fill="#ED5353" d="M5.6 9.6c-.177 0-.32.134-.32.3v.6c0 .166.143.3.32.3h.64c.177 0 .32-.134.32-.3v-.6c0-.166-.143-.3-.32-.3H5.6Zm3.2 0c-.177 0-.32.134-.32.3v.6c0 .166.143.3.32.3h10.88c.177 0 .32-.134.32-.3v-.6c0-.166-.143-.3-.32-.3H8.8Z"/><path fill="#68B723" d="M5.6 13.2c-.177 0-.32.134-.32.3v.6c0 .166.143.3.32.3h.64c.177 0 .32-.134.32-.3v-.6c0-.166-.143-.3-.32-.3H5.6Zm3.2 0c-.177 0-.32.134-.32.3v.6c0 .166.143.3.32.3h10.88c.177 0 .32-.134.32-.3v-.6c0-.166-.143-.3-.32-.3H8.8Z"/><defs><radialGradient id="a" cx="0" cy="0" r="1" gradientTransform="rotate(116.565 8.441 5.908) scale(24.5967)" gradientUnits="userSpaceOnUse"><stop stop-color="#F4F4F4"/><stop offset="1" stop-color="#BBB"/></radialGradient></defs></svg>
